<?xml version="1.0" encoding="UTF-8"?>
<map version="1.10" tiledversion="1.12.2" orientation="orthogonal" renderorder="right-down" width="25" height="16" tilewidth="256" tileheight="256" infinite="0" nextlayerid="9" nextobjectid="46">
 <editorsettings>
  <export format="json"/>
 </editorsettings>
 <tileset firstgid="1" source="../active/mining_nodes_32x.tsx"/>
 <tileset firstgid="85" source="../active/main.tsx"/>
 <layer id="8" name="base drawover" width="25" height="16">
  <data encoding="csv">
85,86,87,88,89,90,91,92,93,94,95,96,97,98,99,100,101,102,103,104,105,106,107,108,109,
110,111,112,113,114,115,116,117,118,119,120,121,122,123,124,125,126,127,128,129,130,131,132,133,134,
135,136,137,138,139,140,141,142,143,144,145,146,147,148,149,150,151,152,153,154,155,156,157,158,159,
160,161,162,163,164,165,166,167,168,169,170,171,172,173,174,175,176,177,178,179,180,181,182,183,184,
185,186,187,188,189,190,191,192,193,194,195,196,197,198,199,200,201,202,203,204,205,206,207,208,209,
210,211,212,213,214,215,216,217,218,219,220,221,222,223,224,225,226,227,228,229,230,231,232,233,234,
235,236,237,238,239,240,241,242,243,244,245,246,247,248,249,250,251,252,253,254,255,256,257,258,259,
260,261,262,263,264,265,266,267,268,269,270,271,272,273,274,275,276,277,278,279,280,281,282,283,284,
285,286,287,288,289,290,291,292,293,294,295,296,297,298,299,300,301,302,303,304,305,306,307,308,309,
310,311,312,313,314,315,316,317,318,319,320,321,322,323,324,325,326,327,328,329,330,331,332,333,334,
335,336,337,338,339,340,341,342,343,344,345,346,347,348,349,350,351,352,353,354,355,356,357,358,359,
360,361,362,363,364,365,366,367,368,369,370,371,372,373,374,375,376,377,378,379,380,381,382,383,384,
385,386,387,388,389,390,391,392,393,394,395,396,397,398,399,400,401,402,403,404,405,406,407,408,409,
410,411,412,413,414,415,416,417,418,419,420,421,422,423,424,425,426,427,428,429,430,431,432,433,434,
435,436,437,438,439,440,441,442,443,444,445,446,447,448,449,450,451,452,453,454,455,456,457,458,459,
460,461,462,463,464,465,466,467,468,469,470,471,472,473,474,475,476,477,478,479,480,481,482,483,484
</data>
 </layer>
 <objectgroup id="5" name="wall_collisions" class="collision">
  <object id="38" x="3657.27" y="1461.76">
   <polygon points="0,0 174.427,69.771 226.756,174.427 296.527,148.263 444.792,296.527 549.448,296.527 627.939,357.577 741.319,244.198 915.746,514.563 933.189,750.038 784.923,802.366 732.595,933.189 619.219,1125.06 401.183,1203.55 148.263,1203.55 -130.821,1186.11 -235.477,1081.45 -305.248,976.794 -427.349,941.908 -479.677,811.09 -514.563,645.381 -532.006,523.282 -409.906,366.298 -357.577,261.641 -218.034,218.034 -305.248,174.427 -444.792,200.592 -470.954,-401.183 -191.87,-375.019 -174.427,-148.263"/>
  </object>
  <object id="39" x="3927.64" y="947.2">
   <polygon points="0,0 383.741,17.4427 375.019,767.481 -69.771,584.334"/>
  </object>
  <object id="40" x="5131.2" y="2726.36">
   <polygon points="0,0 156.985,-8.72137 296.527,-156.985 610.496,-139.542 732.595,0 793.647,209.313 627.939,488.397 148.263,941.908 61.0496,889.58 69.771,837.252 -104.656,819.809 -191.87,558.168 -331.413,444.792 -357.577,322.691 -235.477,174.427 -69.771,148.263"/>
  </object>
  <object id="41" x="1298.27" y="4218.7" rotation="0.0966765">
   <polygon points="8.43563,-109.024 17.4129,-191.363 182.836,-330.537 148.01,-661.071 374.378,-782.848 374.378,-1165.58 -217.662,-1174.28 -261.194,-904.624 -391.791,-869.834 -470.149,-948.118 -461.444,-1087.29 -565.922,-1104.69 -574.627,-1939.73 -348.259,-2113.69 -339.553,-2548.61 -191.542,-2644.29 -182.836,-3200.99 182.836,-3192.29 296.02,-3044.42 322.14,-1991.92 452.738,-1948.42 461.444,-1426.52 583.337,-1383.03 583.337,-1156.88 687.811,-1130.78 679.106,-835.041 896.767,-835.041 966.419,-521.9 1131.84,-478.411 1227.61,-487.106 1245.03,-652.376 1436.57,-626.281 1462.69,-487.106 1662.94,-443.617 1802.24,-339.235 1932.83,-234.855 2046.02,-234.855 2202.74,-130.475 2359.46,-113.078 2516.17,-191.363 2603.23,-243.553 2847.02,-217.458 2925.38,-243.553 2942.79,-356.632 2977.62,-495.805 3099.51,-565.393 3169.16,-756.757 3160.45,-939.418 3299.76,-1009.01 3421.64,-1009.01 3500.01,-930.723 3456.47,-600.187 3743.78,-487.106 3822.14,-260.95 4274.9,-173.966 4597,-347.933 4605.72,-539.295 4623.16,-913.328 4866.93,-939.418 4866.93,-1313.45 4997.53,-1383.03 5104.21,-1370.02 5101.1,-99.6608"/>
  </object>
  <object id="42" x="2584.54" y="1025.69">
   <polygon points="0,0 218.034,34.8855 244.198,514.563 104.656,732.595 61.0496,828.532 43.6069,933.189 -87.2137,941.908 -139.542,915.746 -122.099,1360.53 -313.97,1648.34 -226.756,1901.26 -87.2137,2040.8 104.656,2066.97 235.477,2110.57 279.084,2223.95 113.378,2293.72 52.3282,2258.84 69.771,2119.3 -122.099,2066.97 -322.691,1831.49 -357.577,1604.73 -279.084,1308.21 -156.985,1212.27 -156.985,1029.12 -296.527,1064.01 -348.855,1020.4 -331.413,915.746 -156.985,880.861 -183.149,174.427"/>
  </object>
  <object id="43" x="910.04" y="4296.21">
   <polygon points="31.9333,-212.888 26.1641,-279.084 -148.263,-322.691 -113.378,-697.71 -287.806,-819.809 -427.349,-933.189 -505.84,-1255.88 -610.496,-1351.81 -593.053,-1630.9 -706.433,-1648.34 -688.99,-2093.13 -436.069,-2293.72 -322.691,-2424.54 -340.134,-2825.73 -479.677,-2904.22 -514.563,-3139.7 -645.381,-3165.86 -619.219,-3532.16 -479.677,-3636.81 139.542,-3689.14 200.592,-3514.71 322.691,-3427.5 505.84,-3497.27 523.282,-3697.87 750.038,-3758.91 968.074,-3785.08 1098.89,-3680.42 1168.66,-3540.88 1866.37,-3558.32 1988.47,-3645.54 2162.9,-3645.54 2311.17,-3540.88 2564.08,-3584.49 2904.22,-3549.6 3061.2,-3601.93 3165.86,-3724.03 3497.27,-3741.47 3785.08,-3715.31 3828.68,-3357.73 3933.34,-3035.04 4177.55,-2982.71 4369.4,-3157.14 4439.17,-3706.58 4936.32,-3697.87 4971.2,-3462.39 5154.34,-3453.67 5180.51,-3200.75 4979.91,-3253.07 4814.2,-3122.25 4788.02,-2581.53 5163.05,-2101.85 5232.82,-1927.43 5320.06,-1883.82 5320.06,-1404.14 5483.32,-1433.26 5478.48,-4297.98 1099.79,-4296.05 -906.807,-4292.08 -916.91,-213.918"/>
  </object>
  <object id="44" x="5113.74" y="1889.11">
   <polygon points="0,0 26.1641,-296.527 130.821,-427.349 191.87,-601.777 287.806,-627.939 296.527,-383.741 218.034,-322.691 191.87,-95.9351"/>
  </object>
  <object id="45" x="5532.37" y="1269.89">
   <polygon points="0,0 -8.72137,252.92 191.87,357.577 235.477,17.4427"/>
  </object>
 </objectgroup>
</map>
