<?xml version="1.0" encoding="UTF-8"?>
<map version="1.10" tiledversion="1.12.2" orientation="orthogonal" renderorder="right-down" width="5" height="4" tilewidth="256" tileheight="256" infinite="0" nextlayerid="6" nextobjectid="29">
 <tileset firstgid="1" source="../active/daemia's altar.tsx"/>
 <layer id="1" name="Tile Layer 1" width="5" height="4">
  <data encoding="csv">
1,2,3,4,5,
6,7,8,9,10,
11,12,13,14,15,
16,17,18,19,20
</data>
 </layer>
 <objectgroup id="4" name="wall_collisions" class="collision">
  <object id="5" x="0" y="0" width="262.846" height="1025.34"/>
  <object id="6" x="262.846" y="689.084" width="61.5676" height="340.99"/>
  <object id="7" x="329.15" y="724.603" width="40.2557" height="300.734"/>
  <object id="8" x="374.142" y="760.123" width="104.191" height="265.214"/>
  <object id="9" x="483.069" y="866.682" width="59.1996" height="158.655"/>
  <object id="10" x="542.269" y="930.618" width="49.7277" height="97.0874"/>
  <object id="11" x="700.924" y="899.834" width="108.927" height="125.503"/>
  <object id="12" x="814.587" y="876.154" width="59.1996" height="151.551"/>
  <object id="13" x="864.314" y="800.379" width="68.6716" height="217.855"/>
  <object id="14" x="940.09" y="750.651" width="47.3597" height="274.686"/>
  <object id="15" x="975.61" y="700.924" width="92.3514" height="312.574"/>
  <object id="17" x="1101.11" y="-9.47194" width="184.703" height="1034.81"/>
  <object id="18" x="1063.23" y="679.612" width="40.2557" height="340.99"/>
  <object id="19" x="265.214" y="0" width="835.899" height="305.47"/>
  <object id="20" x="840.635" y="307.838" width="258.11" height="151.551"/>
  <object id="21" x="937.722" y="461.757" width="161.023" height="85.2475"/>
  <object id="22" x="262.846" y="305.47" width="248.638" height="137.343"/>
  <object id="23" x="260.478" y="442.813" width="172.863" height="63.9356"/>
  <object id="24" x="258.11" y="511.485" width="106.559" height="61.5676"/>
  <object id="25" x="547.004" y="419.133" width="246.27" height="104.191"/>
 </objectgroup>
 <objectgroup id="5" name="doors" class="door">
  <object id="26" x="603.836" y="985.082" width="85.2475" height="33.1518"/>
 </objectgroup>
</map>
