<?xml version="1.0" encoding="UTF-8"?>
<map version="1.10" tiledversion="1.12.2" orientation="orthogonal" renderorder="right-down" width="15" height="16" tilewidth="64" tileheight="64" infinite="0" nextlayerid="4" nextobjectid="4">
 <tileset firstgid="1" source="../active/daemia's altar.tsx"/>
 <layer id="1" name="Tile Layer 1" width="15" height="16" visible="1">
  <data encoding="csv">
24,25,26,27,28,29,30,31,32,33,34,35,36,37,38,
44,45,46,47,48,49,50,51,52,53,54,55,56,57,58,
64,65,66,67,68,69,70,71,72,73,74,75,76,77,78,
84,85,86,87,88,89,90,91,92,93,94,95,96,97,98,
104,105,106,107,108,109,110,111,112,113,114,115,116,117,118,
124,125,126,127,128,129,130,131,132,133,134,135,136,137,138,
144,145,146,147,148,149,150,151,152,153,154,155,156,157,158,
164,165,166,167,168,169,170,171,172,173,174,175,176,177,178,
184,185,186,187,188,189,190,191,192,193,194,195,196,197,198,
204,205,206,207,208,209,210,211,212,213,214,215,216,217,218,
224,225,226,227,228,229,230,231,232,233,234,235,236,237,238,
244,245,246,247,248,249,250,251,252,253,254,255,256,257,258,
264,265,266,267,268,269,270,271,272,273,274,275,276,277,278,
284,285,286,287,288,289,290,291,292,293,294,295,296,297,298,
304,305,306,307,308,309,310,311,312,313,314,315,316,317,318,
324,325,326,327,328,329,330,331,332,333,334,335,336,337,338
</data>
 </layer>
 <objectgroup id="3" name="wall_collisions" class="wall_collisions">
  <object id="2" x="388.557" y="996.359">
   <polygon points="0,0 -4.46376,-129.65 -107.13,-181.808 -105.642,-269.732 -241.043,-290.595 -337.758,-390.44 -321.391,-496.247 -214.26,-520.09 -166.647,-575.229 -89.2751,-615.465 -13.3913,-684.015 56.5409,-742.134 175.574,-742.134 221.7,-649.74 293.12,-645.269 331.806,-569.268 422.569,-473.893 412.154,-380.009 379.419,-312.948 272.289,-259.3 257.41,-181.808 168.135,-149.023 110.106,-143.062 111.594,-40.2362 107.13,4.47069 16.3671,7.45115 -14.1153,2.32329 570.449,27.8344 571.197,-1000.56 -388.555,-995.505 -389.771,29.9031 566.715,27.8344"/>
  </object>
  <object id="3" x="350.234" y="381.796">
   <polygon points="0,0 1.01812,86.5404 53.9605,84.5042 59.0511,40.7249 193.443,45.8155 193.443,85.5223 260.639,90.6129 255.549,3.05437 202.606,-76.3592 47.8518,-78.3954"/>
  </object>
 </objectgroup>
</map>
