<?xml version="1.0" encoding="UTF-8"?>
<map version="1.10" tiledversion="1.12.2" orientation="orthogonal" renderorder="right-down" width="60" height="40" tilewidth="256" tileheight="256" infinite="0" nextlayerid="6" nextobjectid="153">
 <tileset firstgid="1" source="../active/Overworld_1.tsx"/>
 <tileset firstgid="97" source="../active/Overworld_2.tsx"/>
 <tileset firstgid="193" source="../active/Overworld_3.tsx"/>
 <tileset firstgid="289" source="../active/Overworld_4.tsx"/>
 <tileset firstgid="385" source="../active/Overworld_5.tsx"/>
 <tileset firstgid="481" source="../active/Overworld_6.tsx"/>
 <tileset firstgid="577" source="../active/Overworld_7.tsx"/>
 <tileset firstgid="673" source="../active/Overworld_8.tsx"/>
 <tileset firstgid="769" source="../active/Overworld_9.tsx"/>
 <tileset firstgid="865" source="../active/Overworld_10.tsx"/>
 <tileset firstgid="961" source="../active/Overworld_11.tsx"/>
 <tileset firstgid="1057" source="../active/Overworld_12.tsx"/>
 <tileset firstgid="1153" source="../active/Overworld_13.tsx"/>
 <tileset firstgid="1249" source="../active/Overworld_14.tsx"/>
 <tileset firstgid="1345" source="../active/Overworld_15.tsx"/>
 <tileset firstgid="1441" source="../active/Overworld_16.tsx"/>
 <tileset firstgid="1537" source="../active/misc/trees_div.tsx"/>
 <layer id="1" name="Tile Layer 1" width="60" height="40" locked="1">
  <data encoding="csv">
0,0,0,0,0,0,0,0,0,0,0,0,0,0,0,0,0,0,0,0,0,0,0,0,0,0,0,0,0,0,0,0,0,0,0,0,0,0,0,0,0,0,0,0,0,0,0,0,0,0,0,0,0,0,0,0,0,0,0,0,
0,0,0,0,0,0,0,0,0,0,0,0,0,0,0,0,0,0,0,0,0,0,0,0,0,0,0,0,0,0,0,0,0,0,0,0,0,0,0,0,0,0,0,0,0,0,0,0,0,0,0,0,0,0,0,0,0,0,0,0,
0,0,0,0,0,0,0,0,0,0,0,0,0,0,0,0,0,0,0,0,0,0,0,0,0,0,0,0,0,0,0,0,0,0,0,0,0,0,0,0,0,0,0,0,0,0,0,0,0,0,0,0,0,0,0,0,0,0,0,0,
0,0,0,0,0,0,0,0,0,0,0,0,0,0,0,0,0,0,0,0,0,0,0,0,0,0,0,0,0,0,0,0,0,0,0,0,0,0,0,0,0,0,0,0,0,0,0,0,0,0,0,0,0,0,0,0,0,0,0,0,
0,0,0,0,0,0,0,0,0,0,0,0,0,0,0,0,0,0,0,0,0,0,0,0,0,0,0,0,0,0,0,0,0,0,0,0,0,0,0,0,0,0,0,0,0,0,0,0,0,0,0,0,0,0,0,0,0,0,0,0,
0,0,0,0,0,0,0,0,0,0,0,0,0,0,0,0,0,0,0,0,0,0,0,0,0,0,0,0,0,0,0,0,0,0,0,0,0,0,0,0,0,0,0,0,0,0,0,0,0,0,0,0,0,0,0,0,0,0,0,0,
0,0,0,0,0,0,1,2,3,4,5,6,7,8,9,10,11,12,97,98,99,100,101,102,103,104,105,106,107,108,193,194,195,196,197,198,199,200,201,202,203,204,289,290,291,292,293,294,295,296,297,298,299,300,0,0,0,0,0,0,
0,0,0,0,0,0,13,14,15,16,17,18,19,20,21,22,23,24,109,110,111,112,113,114,115,116,117,118,119,120,205,206,207,208,209,210,211,212,213,214,215,216,301,302,303,304,305,306,307,308,309,310,311,312,0,0,0,0,0,0,
0,0,0,0,0,0,25,26,27,28,29,30,31,32,33,34,35,36,121,122,123,124,125,126,127,128,129,130,131,132,217,218,219,220,221,222,223,224,225,226,227,228,313,314,315,316,317,318,319,320,321,322,323,324,0,0,0,0,0,0,
0,0,0,0,0,0,37,38,39,40,41,42,43,44,45,46,47,48,133,134,135,136,137,138,139,140,141,142,143,144,229,230,231,232,233,234,235,236,237,238,239,240,325,326,327,328,329,330,331,332,333,334,335,336,0,0,0,0,0,0,
0,0,0,0,0,0,49,50,51,52,53,54,55,56,57,58,59,60,145,146,147,148,149,150,151,152,153,154,155,156,241,242,243,244,245,246,247,248,249,250,251,252,337,338,339,340,341,342,343,344,345,346,347,348,0,0,0,0,0,0,
0,0,0,0,0,0,61,62,63,64,65,66,67,68,69,70,71,72,157,158,159,160,161,162,163,164,165,166,167,168,253,254,255,256,257,258,259,260,261,262,263,264,349,350,351,352,353,354,355,356,357,358,359,360,0,0,0,0,0,0,
0,0,0,0,0,0,73,74,75,76,77,78,79,80,81,82,83,84,169,170,171,172,173,174,175,176,177,178,179,180,265,266,267,268,269,270,271,272,273,274,275,276,361,362,363,364,365,366,367,368,369,370,371,372,0,0,0,0,0,0,
0,0,0,0,0,0,85,86,87,88,89,90,91,92,93,94,95,96,181,182,183,184,185,186,187,188,189,190,191,192,277,278,279,280,281,282,283,284,285,286,287,288,373,374,375,376,377,378,379,380,381,382,383,384,0,0,0,0,0,0,
0,0,0,0,0,0,385,386,387,388,389,390,391,392,393,394,395,396,481,482,483,484,485,486,487,488,489,490,491,492,577,578,579,580,581,582,583,584,585,586,587,588,673,674,675,676,677,678,679,680,681,682,683,684,0,0,0,0,0,0,
0,0,0,0,0,0,397,398,399,400,401,402,403,404,405,406,407,408,493,494,495,496,497,498,499,500,501,502,503,504,589,590,591,592,593,594,595,596,597,598,599,600,685,686,687,688,689,690,691,692,693,694,695,696,0,0,0,0,0,0,
0,0,0,0,0,0,409,410,411,412,413,414,415,416,417,418,419,420,505,506,507,508,509,510,511,512,513,514,515,516,601,602,603,604,605,606,607,608,609,610,611,612,697,698,699,700,701,702,703,704,705,706,707,708,0,0,0,0,0,0,
0,0,0,0,0,0,421,422,423,424,425,426,427,428,429,430,431,432,517,518,519,520,521,522,523,524,525,526,527,528,613,614,615,616,617,618,619,620,621,622,623,624,709,710,711,712,713,714,715,716,717,718,719,720,0,0,0,0,0,0,
0,0,0,0,0,0,433,434,435,436,437,438,439,440,441,442,443,444,529,530,531,532,533,534,535,536,537,538,539,540,625,626,627,628,629,630,631,632,633,634,635,636,721,722,723,724,725,726,727,728,729,730,731,732,0,0,0,0,0,0,
0,0,0,0,0,0,445,446,447,448,449,450,451,452,453,454,455,456,541,542,543,544,545,546,547,548,549,550,551,552,637,638,639,640,641,642,643,644,645,646,647,648,733,734,735,736,737,738,739,740,741,742,743,744,0,0,0,0,0,0,
0,0,0,0,0,0,457,458,459,460,461,462,463,464,465,466,467,468,553,554,555,556,557,558,559,560,561,562,563,564,649,650,651,652,653,654,655,656,657,658,659,660,745,746,747,748,749,750,751,752,753,754,755,756,0,0,0,0,0,0,
0,0,0,0,0,0,469,470,471,472,473,474,475,476,477,478,479,480,565,566,567,568,569,570,571,572,573,574,575,576,661,662,663,664,665,666,667,668,669,670,671,672,757,758,759,760,761,762,763,764,765,766,767,768,0,0,0,0,0,0,
0,0,0,0,0,0,769,770,771,772,773,774,775,776,777,778,779,780,865,866,867,868,869,870,871,872,873,874,875,876,961,962,963,964,965,966,967,968,969,970,971,972,1057,1058,1059,1060,1061,1062,1063,1064,1065,1066,1067,1068,0,0,0,0,0,0,
0,0,0,0,0,0,781,782,783,784,785,786,787,788,789,790,791,792,877,878,879,880,881,882,883,884,885,886,887,888,973,974,975,976,977,978,979,980,981,982,983,984,1069,1070,1071,1072,1073,1074,1075,1076,1077,1078,1079,1080,0,0,0,0,0,0,
0,0,0,0,0,0,793,794,795,796,797,798,799,800,801,802,803,804,889,890,891,892,893,894,895,896,897,898,899,900,985,986,987,988,989,990,991,992,993,994,995,996,1081,1082,1083,1084,1085,1086,1087,1088,1089,1090,1091,1092,0,0,0,0,0,0,
0,0,0,0,0,0,805,806,807,808,809,810,811,812,813,814,815,816,901,902,903,904,905,906,907,908,909,910,911,912,997,998,999,1000,1001,1002,1003,1004,1005,1006,1007,1008,1093,1094,1095,1096,1097,1098,1099,1100,1101,1102,1103,1104,0,0,0,0,0,0,
0,0,0,0,0,0,817,818,819,820,821,822,823,824,825,826,827,828,913,914,915,916,917,918,919,920,921,922,923,924,1009,1010,1011,1012,1013,1014,1015,1016,1017,1018,1019,1020,1105,1106,1107,1108,1109,1110,1111,1112,1113,1114,1115,1116,0,0,0,0,0,0,
0,0,0,0,0,0,829,830,831,832,833,834,835,836,837,838,839,840,925,926,927,928,929,930,931,932,933,934,935,936,1021,1022,1023,1024,1025,1026,1027,1028,1029,1030,1031,1032,1117,1118,1119,1120,1121,1122,1123,1124,1125,1126,1127,1128,0,0,0,0,0,0,
0,0,0,0,0,0,841,842,843,844,845,846,847,848,849,850,851,852,937,938,939,940,941,942,943,944,945,946,947,948,1033,1034,1035,1036,1037,1038,1039,1040,1041,1042,1043,1044,1129,1130,1131,1132,1133,1134,1135,1136,1137,1138,1139,1140,0,0,0,0,0,0,
0,0,0,0,0,0,853,854,855,856,857,858,859,860,861,862,863,864,949,950,951,952,953,954,955,956,957,958,959,960,1045,1046,1047,1048,1049,1050,1051,1052,1053,1054,1055,1056,1141,1142,1143,1144,1145,1146,1147,1148,1149,1150,1151,1152,0,0,0,0,0,0,
0,0,0,0,0,0,1153,1154,1155,1156,1157,1158,1159,1160,1161,1162,1163,1164,1249,1250,1251,1252,1253,1254,1255,1256,1257,1258,1259,1260,1345,1346,1347,1348,1349,1350,1351,1352,1353,1354,1355,1356,1441,1442,1443,1444,1445,1446,1447,1448,1449,1450,1451,1452,0,0,0,0,0,0,
0,0,0,0,0,0,1165,1166,1167,1168,1169,1170,1171,1172,1173,1174,1175,1176,1261,1262,1263,1264,1265,1266,1267,1268,1269,1270,1271,1272,1357,1358,1359,1360,1361,1362,1363,1364,1365,1366,1367,1368,1453,1454,1455,1456,1457,1458,1459,1460,1461,1462,1463,1464,0,0,0,0,0,0,
0,0,0,0,0,0,1177,1178,1179,1180,1181,1182,1183,1184,1185,1186,1187,1188,1273,1274,1275,1276,1277,1278,1279,1280,1281,1282,1283,1284,1369,1370,1371,1372,1373,1374,1375,1376,1377,1378,1379,1380,1465,1466,1467,1468,1469,1470,1471,1472,1473,1474,1475,1476,0,0,0,0,0,0,
0,0,0,0,0,0,1189,1190,1191,1192,1193,1194,1195,1196,1197,1198,1199,1200,1285,1286,1287,1288,1289,1290,1291,1292,1293,1294,1295,1296,1381,1382,1383,1384,1385,1386,1387,1388,1389,1390,1391,1392,1477,1478,1479,1480,1481,1482,1483,1484,1485,1486,1487,1488,0,0,0,0,0,0,
0,0,0,0,0,0,1201,1202,1203,1204,1205,1206,1207,1208,1209,1210,1211,1212,1297,1298,1299,1300,1301,1302,1303,1304,1305,1306,1307,1308,1393,1394,1395,1396,1397,1398,1399,1400,1401,1402,1403,1404,1489,1490,1491,1492,1493,1494,1495,1496,1497,1498,1499,1500,0,0,0,0,0,0,
0,0,0,0,0,0,1213,1214,1215,1216,1217,1218,1219,1220,1221,1222,1223,1224,1309,1310,1311,1312,1313,1314,1315,1316,1317,1318,1319,1320,1405,1406,1407,1408,1409,1410,1411,1412,1413,1414,1415,1416,1501,1502,1503,1504,1505,1506,1507,1508,1509,1510,1511,1512,0,0,0,0,0,0,
0,0,0,0,0,0,1225,1226,1227,1228,1229,1230,1231,1232,1233,1234,1235,1236,1321,1322,1323,1324,1325,1326,1327,1328,1329,1330,1331,1332,1417,1418,1419,1420,1421,1422,1423,1424,1425,1426,1427,1428,1513,1514,1515,1516,1517,1518,1519,1520,1521,1522,1523,1524,0,0,0,0,0,0,
0,0,0,0,0,0,1237,1238,1239,1240,1241,1242,1243,1244,1245,1246,1247,1248,1333,1334,1335,1336,1337,1338,1339,1340,1341,1342,1343,1344,1429,1430,1431,1432,1433,1434,1435,1436,1437,1438,1439,1440,1525,1526,1527,1528,1529,1530,1531,1532,1533,1534,1535,1536,0,0,0,0,0,0,
0,0,0,0,0,0,0,0,0,0,0,0,0,0,0,0,0,0,0,0,0,0,0,0,0,0,0,0,0,0,0,0,0,0,0,0,0,0,0,0,0,0,0,0,0,0,0,0,0,0,0,0,0,0,0,0,0,0,0,0,
0,0,0,0,0,0,0,0,0,0,0,0,0,0,0,0,0,0,0,0,0,0,0,0,0,0,0,0,0,0,0,0,0,0,0,0,0,0,0,0,0,0,0,0,0,0,0,0,0,0,0,0,0,0,0,0,0,0,0,0
</data>
 </layer>
 <objectgroup id="2" name="Collision" locked="1">
  <object id="1" type="collision" x="1544.44" y="9095.83" width="12266.7" height="683.333"/>
  <object id="2" type="collision" x="3952.6" y="7934.82" width="921.241" height="1169.45"/>
  <object id="4" type="collision" x="4272.41" y="7643.65" width="463.007" height="300.716"/>
  <object id="5" type="collision" x="4888.16" y="8688.99" width="501.193" height="410.501"/>
  <object id="6" type="collision" x="4959.76" y="8211.66" width="787.589" height="367.542"/>
  <object id="7" type="collision" x="5308.21" y="8030.28" width="439.141" height="195.704"/>
  <object id="8" type="collision" x="5460.95" y="8569.66" width="291.169" height="310.263"/>
  <object id="9" type="collision" x="5919.19" y="8641.26" width="591.885" height="453.461"/>
  <object id="10" type="collision" x="5398.9" y="8989.71" width="510.74" height="109.785"/>
  <object id="11" type="collision" x="6534.94" y="8875.15" width="696.897" height="219.57"/>
  <object id="12" type="collision" x="7227.06" y="8674.67" width="1279.24" height="429.594"/>
  <object id="13" type="collision" x="7227.06" y="8431.24" width="849.642" height="243.437"/>
  <object id="14" type="collision" x="7389.36" y="8316.68" width="195.704" height="124.105"/>
  <object id="15" type="collision" x="5417.99" y="6875.15" width="911.695" height="591.885"/>
  <object id="16" type="collision" x="5398.9" y="6760.59" width="725.537" height="109.785"/>
  <object id="17" type="collision" x="5537.33" y="6655.58" width="167.064" height="109.785"/>
  <object id="18" type="collision" x="6468.11" y="7094.72" width="949.881" height="529.833"/>
  <object id="19" type="collision" x="7417.99" y="7328.61" width="233.89" height="357.995"/>
  <object id="20" type="collision" x="6635.18" y="6937.2" width="286.396" height="157.518"/>
  <object id="21" type="collision" x="6716.32" y="6851.28" width="133.652" height="90.6921"/>
  <object id="22" type="collision" x="6534.94" y="7023.12" width="100.239" height="66.8258"/>
  <object id="23" type="collision" x="6921.57" y="7013.57" width="109.785" height="85.9189"/>
  <object id="24" type="collision" x="6067.16" y="7867.99" width="1236.28" height="491.647"/>
  <object id="27" type="collision" x="8382.2" y="7471.81" width="1756.56" height="525.06"/>
  <object id="28" type="collision" x="8931.12" y="8015.96" width="1632.46" height="372.315"/>
  <object id="29" type="collision" x="9857.14" y="8440.78" width="906.921" height="195.704"/>
  <object id="30" type="collision" x="9284.34" y="6082.79" width="773.27" height="348.449"/>
  <object id="31" type="collision" x="11327.3" y="7180.64" width="1307.88" height="773.27"/>
  <object id="32" type="collision" x="10081.5" y="7428.85" width="1059.67" height="529.833"/>
  <object id="33" type="collision" x="12224.7" y="6245.08" width="935.561" height="1131.26"/>
  <object id="35" type="collision" x="11398.9" y="4708.08" width="1474.94" height="1298.33"/>
  <object id="36" type="collision" x="11876.2" y="5987.32" width="1298.33" height="300.716"/>
  <object id="37" type="collision" x="13184.1" y="6273.72"/>
  <object id="38" type="collision" x="12821.4" y="4832.19" width="995.927" height="1207.64"/>
  <object id="39" type="collision" x="9742.58" y="4474.19" width="544.153" height="883.055"/>
  <object id="41" type="collision" x="10272.4" y="4860.83" width="276.85" height="295.943"/>
  <object id="42" type="collision" x="9599.38" y="5109.04" width="133.652" height="171.838"/>
  <object id="43" type="collision" x="9026.59" y="5070.85" width="171.838" height="171.838"/>
  <object id="44" type="collision" x="9274.8" y="4698.54" width="357.995" height="262.53"/>
  <object id="45" type="collision" x="9250.93" y="4254.62" width="381.862" height="463.007"/>
  <object id="46" type="collision" x="9637.57" y="4698.54" width="9.54654" height="14.3198"/>
  <object id="47" type="collision" x="9360.72" y="4159.16" width="214.797" height="100.239"/>
  <object id="48" type="collision" x="9002.72" y="4827.42" width="147.971" height="157.518"/>
  <object id="49" type="collision" x="9637.57" y="2822.64" width="467.78" height="491.647"/>
  <object id="50" type="collision" x="10081.5" y="2688.99" width="386.635" height="505.967"/>
  <object id="52" type="collision" x="10487.2" y="2717.63" width="482.1" height="720.764"/>
  <object id="53" type="collision" x="4826.11" y="5791.62" width="572.792" height="687.351"/>
  <object id="54" type="collision" x="5384.58" y="5963.45" width="276.85" height="463.007"/>
  <object id="55" type="collision" x="5656.66" y="6078.01" width="181.384" height="252.983"/>
  <object id="56" type="collision" x="4439.47" y="6225.98" width="357.995" height="505.967"/>
  <object id="57" type="collision" x="4778.38" y="6421.69" width="348.449" height="486.874"/>
  <object id="58" type="collision" x="5112.51" y="6455.1" width="114.558" height="124.105"/>
  <object id="59" type="collision" x="5117.28" y="6722.4" width="114.558" height="186.158"/>
  <object id="60" type="collision" x="4611.31" y="6097.11" width="224.344" height="143.198"/>
  <object id="62" type="collision" x="4530.17" y="6736.72" width="224.344" height="639.618"/>
  <object id="63" type="collision" x="4764.06" y="6899.02" width="186.158" height="286.396"/>
  <object id="64" type="collision" x="4262.86" y="7056.53" width="262.53" height="286.396"/>
  <object id="65" type="collision" x="3546.87" y="8006.41" width="424.821" height="224.344"/>
  <object id="66" type="collision" x="3737.8" y="8225.98" width="214.797" height="105.012"/>
  <object id="67" type="collision" x="3651.89" y="7863.22" width="305.489" height="133.652"/>
  <object id="68" type="collision" x="3828.5" y="7758.2" width="229.117" height="109.785"/>
  <object id="69" type="collision" x="4067.16" y="7643.65" width="219.57" height="281.623"/>
  <object id="70" type="collision" x="4239" y="7710.47" width="4.77327"/>
  <object id="72" type="collision" x="2921.57" y="8836.96" width="410.501" height="272.076"/>
  <object id="73" type="collision" x="3336.85" y="8908.56" width="653.938" height="190.931"/>
  <object id="74" type="collision" x="3503.91" y="8784.46" width="463.007" height="119.332"/>
  <object id="75" type="collision" x="3651.89" y="8669.9" width="319.809" height="114.558"/>
  <object id="76" type="collision" x="3881" y="8331" width="85.9189" height="367.542"/>
  <object id="77" type="collision" x="1527.78" y="1566.93" width="515.513" height="7537.34"/>
  <object id="78" type="collision" x="2065.04" y="1545.17" width="5597.92" height="1559.79"/>
  <object id="79" type="collision" x="12931.6" y="1510.51" width="883.882" height="3032.93"/>
  <object id="80" type="collision" x="8997.45" y="1562.5" width="1507.8" height="762.565"/>
  <object id="81" type="collision" x="8200.22" y="1562.5" width="571.924" height="1438.47"/>
  <object id="84" type="collision" x="7697.62" y="1562.5" width="519.931" height="1299.83"/>
  <object id="85" type="collision" x="4027.78" y="3714.67" width="1295.65" height="669.565"/>
  <object id="86" type="collision" x="4527.78" y="3097.28" width="800" height="626.087"/>
  <object id="87" type="collision" x="5319.08" y="3105.98" width="1317.39" height="673.913"/>
  <object id="88" type="collision" x="5736.48" y="3801.63" width="569.565" height="556.522"/>
  <object id="89" type="collision" x="5427.78" y="4397.28" width="647.826" height="321.739"/>
  <object id="90" type="collision" x="5645.17" y="4719.02" width="378.261" height="286.957"/>
  <object id="91" type="collision" x="6336.48" y="4071.2" width="308.696" height="408.696"/>
  <object id="92" type="collision" x="6519.08" y="4258.15" width="243.478" height="300"/>
  <object id="93" type="collision" x="6679.95" y="4427.72" width="217.391" height="321.739"/>
  <object id="94" type="collision" x="6753.87" y="4627.72" width="439.13" height="256.522"/>
  <object id="95" type="collision" x="6453.87" y="5440.76" width="1534.78" height="369.565"/>
  <object id="97" type="collision" x="6301.69" y="5810.33" width="839.13" height="273.913"/>
  <object id="98" type="collision" x="6536.48" y="6110.33" width="539.13" height="156.522"/>
  <object id="99" type="collision" x="6493" y="6292.93" width="443.478" height="230.435"/>
  <object id="100" type="collision" x="7127.78" y="5792.93" width="208.696" height="173.913"/>
  <object id="101" type="collision" x="6871.26" y="5153.8" width="469.565" height="300"/>
  <object id="102" type="collision" x="7988.65" y="5440.76" width="195.652" height="269.565"/>
  <object id="103" type="collision" x="7127.78" y="6453.8" width="778.261" height="543.478"/>
  <object id="104" type="collision" x="8132.13" y="5910.33" width="595.652" height="530.435"/>
  <object id="105" type="collision" x="7740.82" y="6284.24" width="486.957" height="369.565"/>
  <object id="106" type="collision" x="8706.04" y="7027.72" width="1013.04" height="508.696"/>
  <object id="107" type="collision" x="9053.87" y="6797.28" width="543.478" height="230.435"/>
  <object id="109" type="collision" x="10488.6" y="1553.8" width="2439.13" height="539.13"/>
  <object id="110" type="collision" x="11449.5" y="2123.37" width="1400" height="513.043"/>
  <object id="111" type="collision" x="8914.74" y="2614.67" width="460.87" height="513.043"/>
  <object id="112" type="collision" x="8771.26" y="1571.2" width="230.435" height="1434.78"/>
  <object id="114" type="collision" x="7388.65" y="3545.11" width="886.957" height="582.609"/>
  <object id="115" type="collision" x="7640.82" y="4132.07" width="473.913" height="391.304"/>
  <object id="116" type="collision" x="3914.74" y="4623.37" width="521.739" height="234.783"/>
  <object id="117" type="collision" x="4336.48" y="4723.37" width="339.13" height="252.174"/>
  <object id="118" type="collision" x="4440.82" y="4927.72" width="339.13" height="173.913"/>
  <object id="119" type="collision" x="4788.65" y="5040.76" width="530.435" height="391.304"/>
  <object id="120" type="collision" x="5279.95" y="5158.15" width="260.87" height="126.087"/>
  <object id="121" type="collision" x="2049.52" y="4410.33" width="765.217" height="1969.57"/>
  <object id="122" type="collision" x="2814.74" y="4545.11" width="330.435" height="1673.91"/>
  <object id="123" type="collision" x="3153.87" y="4610.33" width="430.435" height="1508.7"/>
  <object id="124" type="collision" x="3584.3" y="5262.5" width="356.522" height="965.217"/>
  <object id="125" type="collision" x="3066.91" y="6223.37" width="1200" height="600"/>
  <object id="126" type="collision" x="3475.61" y="6845.11" width="595.652" height="343.478"/>
  <object id="130" type="collision" x="2727.78" y="8236.41" width="626.087" height="439.13"/>
  <object id="131" type="collision" x="2036.47" y="8597.28" width="669.565" height="482.609"/>
  <object id="132" type="collision" x="2649.52" y="8923.37" width="291.304" height="169.565"/>
  <object id="133" type="collision" x="2032.13" y="8279.89" width="373.913" height="321.739"/>
  <object id="134" type="collision" x="2040.82" y="7319.02" width="513.043" height="221.739"/>
  <object id="135" type="collision" x="2027.78" y="7540.76" width="173.913" height="282.609"/>
  <object id="136" type="collision" x="2179.95" y="7514.67" width="208.696" height="104.348"/>
  <object id="137" type="collision" x="2045.17" y="6879.89" width="86.9565" height="443.478"/>
  <object id="138" type="collision" x="2145.17" y="6949.46" width="86.9565" height="356.522"/>
  <object id="139" type="collision" x="2240.82" y="7123.37" width="191.304" height="191.304"/>
  <object id="140" type="collision" x="2040.82" y="8049.46" width="113.043" height="234.783"/>
  <object id="141" type="collision" x="3945.17" y="5666.85" width="169.565" height="491.304"/>
  <object id="142" type="collision" x="13049.5" y="4549.46" width="817.391" height="286.894"/>
  <object id="144" type="collision" x="13171.3" y="6019.02" width="652.174" height="539.13"/>
  <object id="145" type="collision" x="13419.1" y="7471.2" width="391.304" height="1630.43"/>
  <object id="146" type="collision" x="11958.2" y="8545.11" width="1456.52" height="547.826"/>
  <object id="147" type="collision" x="12888.7" y="8019.02" width="526.087" height="508.696"/>
  <object id="148" type="collision" x="13497.8" y="6558.15" width="321.299" height="917.391"/>
  <object id="149" type="collision" x="13219.1" y="6579.89" width="278.261" height="682.609"/>
 </objectgroup>
 <objectgroup id="3" name="SpawnPoints" locked="1">
  <object id="150" name="tutorial" type="spawn_point" x="2994.46" y="8707.54" width="176.922" height="25.2827">
   <properties>
    <property name="spawn_id" value="default"/>
    <property name="target_map" value="tutorial"/>
   </properties>
  </object>
 </objectgroup>
 <objectgroup id="5" name="Objects">
  <object id="151" name="Cave" type="Door" x="2311.52" y="6419.51" width="236.377" height="44.7873">
   <properties>
    <property name="spawn_id" value="entrance"/>
    <property name="target_map" value="cave"/>
   </properties>
  </object>
  <object id="152" name="Cave" type="spawn_point" x="2319.73" y="6475.42" width="219.064" height="28.6869"/>
 </objectgroup>
 <layer id="4" name="Decor" width="60" height="40" locked="1">
  <data encoding="csv">
0,0,0,0,0,0,0,0,0,0,0,0,0,0,0,0,0,0,0,0,0,0,0,0,0,0,0,0,0,0,0,0,0,0,0,0,0,0,0,0,0,0,0,0,0,0,0,0,0,0,0,0,0,0,0,0,0,0,0,0,
0,0,0,0,0,0,0,0,0,0,0,0,0,0,0,0,0,0,0,0,0,0,0,0,0,0,0,0,0,0,0,0,0,0,0,0,0,0,0,0,0,0,0,0,0,0,0,0,0,0,0,0,0,0,0,0,0,0,0,0,
0,0,0,0,0,0,0,0,0,0,0,0,0,0,0,0,0,0,0,0,0,0,0,0,0,0,0,0,0,0,0,0,0,0,0,0,0,0,0,0,0,0,0,0,0,0,0,0,0,0,0,0,0,0,0,0,0,0,0,0,
0,0,0,0,0,0,0,0,0,0,0,0,0,0,0,0,0,0,0,0,0,0,0,0,0,0,0,0,0,0,0,0,0,0,0,0,0,0,0,0,0,0,0,0,0,0,0,0,0,0,0,0,0,0,0,0,0,0,0,0,
0,0,0,0,0,0,0,0,0,0,0,0,0,0,0,0,0,0,0,0,0,0,0,0,0,0,0,0,0,0,0,0,0,0,0,0,0,0,0,0,0,0,0,0,0,0,0,0,0,0,0,0,0,0,0,0,0,0,0,0,
0,0,0,0,0,0,0,0,0,0,0,0,0,0,0,0,0,0,0,0,0,0,0,0,0,0,0,0,0,0,0,0,0,0,0,0,0,0,0,0,0,0,0,0,0,0,0,0,0,0,0,0,0,0,0,0,0,0,0,0,
0,0,0,0,0,0,0,0,0,0,0,0,0,0,0,0,0,0,0,0,0,0,0,0,0,0,0,0,0,0,0,0,0,0,0,0,0,0,0,0,0,0,0,0,0,0,0,0,0,0,0,0,0,0,0,0,0,0,0,0,
0,0,0,0,0,0,0,0,0,0,0,0,0,0,0,0,0,0,0,0,0,0,0,0,0,0,0,0,0,0,0,0,0,0,0,0,0,0,0,0,0,0,0,0,0,0,0,0,0,0,0,0,0,0,0,0,0,0,0,0,
0,0,0,0,0,0,0,0,0,0,0,0,0,0,0,0,0,0,0,0,0,0,0,0,0,0,0,0,0,0,0,0,0,0,0,0,0,0,0,0,0,0,0,0,0,0,0,0,0,0,0,0,0,0,0,0,0,0,0,0,
0,0,0,0,0,0,0,0,0,0,0,0,0,0,0,0,0,0,0,0,0,0,0,0,0,0,0,0,0,0,0,0,0,0,0,0,0,0,0,0,0,0,0,0,0,0,0,0,0,0,0,0,0,0,0,0,0,0,0,0,
0,0,0,0,0,0,0,0,0,0,0,0,0,0,0,0,0,0,0,0,0,0,0,0,0,0,0,0,0,0,0,0,0,0,0,0,0,0,0,0,0,0,0,0,0,0,0,0,0,0,0,0,0,0,0,0,0,0,0,0,
0,0,0,0,0,0,0,0,0,0,0,0,0,0,0,0,0,0,0,0,0,0,0,0,0,0,0,0,0,0,0,0,0,0,0,0,0,0,0,0,0,0,0,0,0,0,0,0,0,0,0,0,0,0,0,0,0,0,0,0,
0,0,0,0,0,0,0,0,0,0,0,0,0,0,0,0,0,0,0,0,0,0,0,0,0,0,0,0,0,0,0,0,0,0,0,0,0,0,0,0,0,0,0,0,0,0,0,0,0,0,0,0,0,0,0,0,0,0,0,0,
0,0,0,0,0,0,0,0,0,0,0,0,0,0,0,0,0,0,0,0,0,0,0,0,0,0,0,0,0,0,0,0,0,0,0,0,0,0,0,0,0,0,0,0,0,0,0,0,0,0,0,0,0,0,0,0,0,0,0,0,
0,0,0,0,0,0,0,0,0,0,0,0,0,0,0,0,0,0,0,0,0,0,0,0,0,0,0,0,0,0,0,0,0,0,0,0,0,0,0,0,0,0,0,0,0,0,0,0,0,0,0,0,0,0,0,0,0,0,0,0,
0,0,0,0,0,0,0,0,0,0,0,0,0,0,0,0,0,0,0,0,0,0,0,0,0,0,0,0,0,0,0,0,0,0,0,0,0,0,0,0,0,0,0,0,0,0,0,0,0,0,0,0,0,0,0,0,0,0,0,0,
0,0,0,0,0,0,0,0,0,0,0,0,0,0,0,0,0,0,0,0,0,0,0,0,0,0,0,0,0,0,0,0,0,0,0,0,0,0,0,0,0,0,0,0,0,0,0,0,0,0,0,0,0,0,0,0,0,0,0,0,
0,0,0,0,0,0,0,0,0,0,0,0,0,0,0,0,0,0,0,0,0,0,0,0,0,0,0,0,0,0,0,0,0,0,0,0,0,0,0,0,0,0,0,0,0,0,0,0,0,0,0,0,0,0,0,0,0,0,0,0,
0,0,0,0,0,0,0,0,0,0,0,0,0,0,0,0,0,0,0,0,0,0,0,0,0,0,0,0,0,0,0,0,0,0,0,0,0,0,0,0,0,0,0,0,0,0,0,0,0,0,0,0,0,0,0,0,0,0,0,0,
0,0,0,0,0,0,0,0,0,0,0,0,0,0,0,0,0,0,0,0,0,0,0,0,0,0,0,0,0,0,0,0,0,0,0,0,0,0,0,0,0,0,1568,0,0,0,0,0,0,0,0,0,0,0,0,0,0,0,0,0,
0,0,0,0,0,0,0,0,0,0,0,0,0,0,0,0,0,0,0,0,0,0,0,0,0,0,0,0,0,0,0,0,0,0,0,0,0,0,0,0,0,0,0,0,0,0,0,0,0,0,0,0,0,0,0,0,0,0,0,0,
0,0,0,0,0,0,0,0,0,0,0,0,0,0,0,0,0,0,0,0,0,0,0,0,0,0,0,0,0,0,0,0,0,0,0,0,0,0,0,0,0,0,0,0,0,0,0,0,0,0,0,0,0,0,0,0,0,0,0,0,
0,0,0,0,0,0,0,0,0,0,0,0,0,0,0,0,0,0,0,0,0,0,0,0,0,0,0,0,0,0,0,0,0,0,0,0,0,0,0,0,0,0,0,0,0,0,0,0,0,0,0,0,0,0,0,0,0,0,0,0,
0,0,0,0,0,0,0,0,0,0,0,0,0,0,0,0,0,0,0,0,0,0,0,0,0,0,0,0,0,0,1570,0,0,0,0,0,0,0,0,0,0,0,0,0,0,1539,0,0,0,0,0,0,0,0,0,0,0,0,0,0,
0,0,0,0,0,0,0,0,0,0,0,0,0,0,0,0,0,0,0,0,0,0,0,0,0,0,0,0,0,1571,0,0,0,0,0,0,0,0,0,0,0,0,0,1538,0,0,1541,0,0,0,0,0,0,0,0,0,0,0,0,0,
0,0,0,0,0,0,0,0,0,0,0,0,0,0,0,0,0,0,0,0,0,0,0,0,0,0,0,0,0,0,0,1561,0,0,0,0,0,0,0,0,0,0,0,0,1540,1540,0,1541,0,1558,0,0,0,0,0,0,0,0,0,0,
0,0,0,0,0,0,0,0,0,0,0,0,0,0,0,0,0,0,0,0,0,0,0,0,0,0,0,0,0,0,0,0,0,0,0,0,0,0,0,0,0,0,0,0,0,0,0,0,0,0,0,0,0,0,0,0,0,0,0,0,
0,0,0,0,0,0,0,0,0,0,0,0,0,0,0,0,0,0,0,0,0,0,0,0,0,0,0,0,0,0,0,1559,0,0,0,0,0,0,0,0,0,0,0,0,0,0,0,0,0,0,0,0,0,0,0,0,0,0,0,0,
0,0,0,0,0,0,0,0,0,0,0,0,0,0,0,0,0,0,0,0,0,0,0,0,0,0,0,0,0,0,0,1541,0,0,0,0,0,0,0,0,1537,0,0,0,0,0,0,0,0,0,0,0,0,0,0,0,0,0,0,0,
0,0,0,0,0,0,0,0,0,0,0,0,0,0,0,0,0,0,0,0,0,0,0,0,0,0,0,0,0,0,0,0,0,0,0,0,0,0,0,0,0,0,0,0,0,0,0,0,0,0,0,0,0,0,0,0,0,0,0,0,
0,0,0,0,0,0,0,0,0,0,0,0,0,0,0,0,0,0,0,0,0,0,0,0,0,0,0,0,0,0,0,0,0,0,0,0,0,0,0,0,0,0,0,0,0,0,0,1541,0,0,0,0,0,0,0,0,0,0,0,0,
0,0,0,0,0,0,0,0,0,0,0,0,0,0,0,0,0,0,0,0,0,0,0,0,0,0,0,0,0,0,0,0,0,0,0,0,0,0,1539,0,0,0,0,0,0,0,0,0,0,0,0,0,0,0,0,0,0,0,0,0,
0,0,0,0,0,0,0,0,0,0,0,0,0,0,0,0,0,0,0,0,0,0,0,0,0,0,0,0,0,0,0,0,0,0,0,0,0,0,1559,0,0,0,0,0,0,0,0,0,0,0,0,0,0,0,0,0,0,0,0,0,
0,0,0,0,0,0,0,0,0,0,0,0,0,0,0,0,0,0,0,0,0,0,0,0,0,0,0,0,0,0,0,0,0,0,0,0,0,0,0,0,0,0,0,0,0,0,0,0,0,0,0,0,0,0,0,0,0,0,0,0,
0,0,0,0,0,0,0,0,0,0,0,0,0,0,0,0,0,0,0,0,0,0,0,0,0,0,0,0,0,0,0,0,0,0,1538,0,0,0,0,0,0,0,0,0,0,0,0,0,0,1541,0,0,0,0,0,0,0,0,0,0,
0,0,0,0,0,0,0,0,0,0,0,0,0,0,0,0,0,0,0,0,0,0,0,0,0,0,0,0,0,0,0,0,1538,0,0,0,0,0,0,0,0,0,0,0,0,1541,0,0,0,1541,0,0,0,0,0,0,0,0,0,0,
0,0,0,0,0,0,0,0,0,0,0,0,0,0,0,0,0,0,0,0,0,0,0,0,0,0,0,0,0,0,0,0,0,0,0,1541,0,0,1539,0,0,0,0,0,0,0,0,0,0,0,0,0,0,0,0,0,0,0,0,0,
0,0,0,0,0,0,0,0,0,0,0,0,0,0,0,0,0,0,0,0,0,0,0,0,0,0,0,0,0,0,0,0,0,0,0,0,0,0,0,0,0,0,0,0,0,0,0,0,0,0,0,0,0,0,0,0,0,0,0,0,
0,0,0,0,0,0,0,0,0,0,0,0,0,0,0,0,0,0,0,0,0,0,0,0,0,0,0,0,0,0,0,0,0,0,0,0,0,0,0,0,0,0,0,0,0,0,0,0,0,0,0,0,0,0,0,0,0,0,0,0,
0,0,0,0,0,0,0,0,0,0,0,0,0,0,0,0,0,0,0,0,0,0,0,0,0,0,0,0,0,0,0,0,0,0,0,0,0,0,0,0,0,0,0,0,0,0,0,0,0,0,0,0,0,0,0,0,0,0,0,0
</data>
 </layer>
</map>
