<?xml version="1.0" encoding="UTF-8"?>
<map version="1.10" tiledversion="1.12.2" class="wall_collisions" orientation="orthogonal" renderorder="right-down" width="16" height="15" tilewidth="64" tileheight="64" infinite="0" nextlayerid="5" nextobjectid="3">
 <tileset firstgid="1" source="../active/tutorial_rubble.tsx"/>
 <layer id="4" name="base" width="16" height="15">
  <data encoding="csv">
25,26,27,28,29,30,31,32,33,34,35,36,37,38,39,40,
46,47,48,49,50,51,52,53,54,55,56,57,58,59,60,61,
67,68,69,70,71,72,73,74,75,76,77,78,79,80,81,82,
88,89,90,91,92,93,94,95,96,97,98,99,100,101,102,103,
109,110,111,112,113,114,115,116,117,118,119,120,121,122,123,124,
130,131,132,133,134,135,136,137,138,139,140,141,142,143,144,145,
151,152,153,154,155,156,157,158,159,160,161,162,163,164,165,166,
172,173,174,175,176,177,178,179,180,181,182,183,184,185,186,187,
193,194,195,196,197,198,199,200,201,202,203,204,205,206,207,208,
214,215,216,217,218,219,220,221,222,223,224,225,226,227,228,229,
235,236,237,238,239,240,241,242,243,244,245,246,247,248,249,250,
256,257,258,259,260,261,262,263,264,265,266,267,268,269,270,271,
277,278,279,280,281,282,283,284,285,286,287,288,289,290,291,292,
298,299,300,301,302,303,304,305,306,307,308,309,310,311,312,313,
319,320,321,322,323,324,325,326,327,328,329,330,331,332,333,334
</data>
 </layer>
 <objectgroup id="3" name="wall_collisions">
  <object id="1" x="382.558" y="888.313">
   <polygon points="0,0 192.9,-59.9773 312.855,40.5252 419.841,6.48403 437.672,-37.2832 534.933,-61.5983 534.933,-108.608 612.741,-124.818 607.878,-332.307 530.07,-364.727 502.513,-494.408 502.513,-523.586 380.937,-573.837 372.832,-687.308 262.603,-714.865 160.48,-627.33 56.7353,-638.677 12.9681,-680.823 -66.4613,-635.435 -90.7765,-572.216 -158.859,-570.595 -218.836,-491.166 -230.183,-419.841 -333.928,-385.8 -335.549,-301.508 -272.329,-259.361 -280.434,-113.471 -152.375,-103.745 -129.681,-45.3882 -24.3151,3.24202 32.6409,81.1851 -384.26,66.623 -380.086,-891.199 635.764,-892.599 635.489,73.3278 -229.774,77.3938"/>
  </object>
  <object id="2" x="377.695" y="414.978">
   <polygon points="0,0 58.3563,-21.0731 103.745,-69.7034 217.215,-81.0504 239.909,-24.3151 260.982,6.48403 260.982,63.2193 231.804,139.407 150.754,139.407 105.366,183.174 24.3151,166.964 -14.5891,137.786 21.0731,84.2924 -6.48403,47.0092"/>
  </object>
 </objectgroup>
</map>
