<?xml version="1.0" encoding="UTF-8"?>
<map version="1.10" tiledversion="1.12.2" orientation="orthogonal" renderorder="right-down" width="25" height="16" tilewidth="64" tileheight="64" infinite="0" nextlayerid="9" nextobjectid="46">
 <editorsettings>
  <export format="json"/>
 </editorsettings>
 <tileset firstgid="1" source="../active/mining_nodes_32x.tsx"/>
 <tileset firstgid="85" source="../active/main.tsx"/>
 <layer id="8" name="base drawover" width="25" height="16">
  <data encoding="csv">
85,86,87,88,89,90,91,92,93,94,95,96,97,98,99,100,101,102,103,104,105,106,107,108,109,
110,111,112,113,114,115,116,117,118,119,120,121,122,123,124,125,126,127,128,129,130,131,132,133,134,
135,136,137,138,139,140,141,142,143,144,145,146,147,148,149,150,151,152,153,154,155,156,157,158,159,
160,161,162,163,164,165,166,167,168,169,170,171,172,173,174,175,176,177,178,179,180,181,182,183,184,
185,186,187,188,189,190,191,192,193,194,195,196,197,198,199,200,201,202,203,204,205,206,207,208,209,
210,211,212,213,214,215,216,217,218,219,220,221,222,223,224,225,226,227,228,229,230,231,232,233,234,
235,236,237,238,239,240,241,242,243,244,245,246,247,248,249,250,251,252,253,254,255,256,257,258,259,
260,261,262,263,264,265,266,267,268,269,270,271,272,273,274,275,276,277,278,279,280,281,282,283,284,
285,286,287,288,289,290,291,292,293,294,295,296,297,298,299,300,301,302,303,304,305,306,307,308,309,
310,311,312,313,314,315,316,317,318,319,320,321,322,323,324,325,326,327,328,329,330,331,332,333,334,
335,336,337,338,339,340,341,342,343,344,345,346,347,348,349,350,351,352,353,354,355,356,357,358,359,
360,361,362,363,364,365,366,367,368,369,370,371,372,373,374,375,376,377,378,379,380,381,382,383,384,
385,386,387,388,389,390,391,392,393,394,395,396,397,398,399,400,401,402,403,404,405,406,407,408,409,
410,411,412,413,414,415,416,417,418,419,420,421,422,423,424,425,426,427,428,429,430,431,432,433,434,
435,436,437,438,439,440,441,442,443,444,445,446,447,448,449,450,451,452,453,454,455,456,457,458,459,
460,461,462,463,464,465,466,467,468,469,470,471,472,473,474,475,476,477,478,479,480,481,482,483,484
</data>
 </layer>
 <objectgroup id="5" name="wall_collisions" class="collision">
  <object id="38" x="914.273" y="366.148">
   <polygon points="0,0 43.85,17.54 57.005,43.85 74.5451,37.2725 111.818,74.5451 138.128,74.5451 157.86,89.8926 186.363,61.39 230.213,129.358 234.598,188.555 197.325,201.71 184.17,234.598 155.668,282.833 100.855,302.565 37.2725,302.565 -32.8875,298.18 -59.1975,271.87 -76.7376,245.56 -107.433,236.79 -120.588,203.903 -129.358,162.245 -133.743,131.55 -103.048,92.0851 -89.8926,65.775 -54.8125,54.8125 -76.7376,43.85 -111.818,50.4275 -118.395,-100.855 -48.235,-94.2776 -43.85,-37.2725"/>
  </object>
  <object id="39" x="982.241" y="236.79">
   <polygon points="0,0 96.4701,4.385 94.2776,192.94 -17.54,146.898"/>
  </object>
  <object id="40" x="1284.81" y="684.061">
   <polygon points="0,0 39.465,-2.1925 74.5451,-39.465 153.475,-35.08 184.17,0 199.518,52.62 157.86,122.78 37.2725,236.79 15.3475,223.635 17.54,210.48 -26.31,206.095 -48.235,140.32 -83.3151,111.818 -89.8926,81.1226 -59.1975,43.85 -17.54,37.2725"/>
  </object>
  <object id="41" x="324.49" y="1061.17">
   <polygon points="2.1925,13.155 4.385,-48.235 46.0425,-83.3151 37.2725,-166.63 94.2776,-197.325 94.2776,-293.795 -54.8125,-295.988 -65.775,-228.02 -98.6626,-219.25 -118.395,-238.983 -116.203,-274.063 -142.513,-278.448 -144.705,-488.928 -87.7001,-532.778 -85.5076,-642.403 -48.235,-666.52 -46.0425,-806.841 46.0425,-804.648 74.5451,-767.376 81.1226,-502.083 114.01,-491.12 116.203,-359.57 146.898,-348.608 146.898,-291.603 173.208,-285.025 171.015,-210.48 225.828,-210.48 243.368,-131.55 285.025,-120.588 309.143,-122.78 313.528,-164.438 361.763,-157.86 368.34,-122.78 418.768,-111.818 453.848,-85.5076 486.735,-59.1975 515.238,-59.1975 554.703,-32.8875 594.168,-28.5025 633.633,-48.235 655.558,-61.39 716.948,-54.8125 736.681,-61.39 741.066,-89.8926 749.836,-124.973 780.531,-142.513 798.071,-190.748 795.878,-236.79 830.958,-254.33 861.653,-254.33 881.386,-234.598 870.423,-151.283 942.776,-122.78 962.508,-65.775 1076.52,-43.85 1157.64,-87.7001 1159.83,-135.935 1164.22,-230.213 1225.61,-236.79 1225.61,-331.068 1258.5,-348.608 1317.69,-350.8 1308.92,26.31"/>
  </object>
  <object id="42" x="644.595" y="256.523">
   <polygon points="0,0 54.8125,8.77001 61.39,129.358 26.31,184.17 15.3475,208.288 10.9625,234.598 -21.925,236.79 -35.08,230.213 -30.695,342.03 -78.9301,414.383 -57.005,477.965 -21.925,513.045 26.31,519.623 59.1975,530.585 70.1601,559.088 28.5025,576.628 13.155,567.858 17.54,532.778 -30.695,519.623 -81.1226,460.425 -89.8926,403.42 -70.1601,328.875 -39.465,304.758 -39.465,258.715 -74.5451,267.485 -87.7001,256.523 -83.3151,230.213 -39.465,221.443 -46.0425,43.85"/>
  </object>
  <object id="43" x="223.635" y="1078.71">
   <polygon points="0,0 6.5775,-70.1601 -37.2725,-81.1226 -28.5025,-175.4 -72.3526,-206.095 -107.433,-234.598 -127.165,-315.72 -153.475,-339.838 -149.09,-409.998 -177.593,-414.383 -173.208,-526.2 -109.625,-576.628 -81.1226,-609.515 -85.5076,-710.371 -120.588,-730.103 -129.358,-789.301 -162.245,-795.878 -155.668,-887.963 -120.588,-914.273 35.08,-927.428 50.4275,-883.578 81.1226,-861.653 127.165,-879.193 131.55,-929.621 188.555,-944.968 243.368,-951.546 276.255,-925.236 293.795,-890.156 469.195,-894.541 499.89,-916.466 543.74,-916.466 581.013,-890.156 644.595,-901.118 730.103,-892.348 769.568,-905.503 795.878,-936.198 879.193,-940.583 951.546,-934.006 962.508,-844.113 988.818,-762.991 1050.21,-749.836 1098.44,-793.686 1115.98,-931.813 1240.96,-929.621 1249.73,-870.423 1295.77,-868.231 1302.35,-804.648 1251.92,-817.803 1210.26,-784.916 1203.68,-648.98 1297.96,-528.393 1315.5,-484.543 1337.43,-473.58 1337.43,-352.993 1466.78,-368.34 1460.21,-1131.33 263.1,-1133.52 -361.763,-1113.79 -265.293,-10.9625"/>
  </object>
  <object id="44" x="1280.42" y="473.58">
   <polygon points="0,0 6.5775,-74.5451 32.8875,-107.433 48.235,-151.283 72.3526,-157.86 74.5451,-96.4701 54.8125,-81.1226 48.235,-24.1175"/>
  </object>
  <object id="45" x="1385.66" y="317.913">
   <polygon points="0,0 -2.1925,63.5825 48.235,89.8926 59.1975,4.385"/>
  </object>
 </objectgroup>
</map>
